modules/zondicons/icons/buoy.svg

<?xml version="1.0" encoding="UTF-8" standalone="no"?>
<svg width="20px" height="20px" viewBox="0 0 20 20" version="1.1" xmlns="http://www.w3.org/2000/svg" xmlns:xlink="http://www.w3.org/1999/xlink">
    <!-- Generator: Sketch 3.7.2 (28276) - http://www.bohemiancoding.com/sketch -->
    <title>buoy</title>
    <desc>Created with Sketch.</desc>
    <defs></defs>
    <g id="Page-1" stroke="none" stroke-width="1" fill="none" fill-rule="evenodd">
        <g id="buoy" fill="#000000">
            <path d="M2.8430172,13.5784914 C3.61700769,15.1234609 4.87653905,16.3829923 6.4215086,17.1569828 L7.76344287,14.4731143 C6.79783691,13.9893702 6.0106298,13.2021631 5.52688575,12.2365571 L2.8430172,13.5784914 Z M2.8430172,6.4215086 C3.61700769,4.87653905 4.87653905,3.61700769 6.4215086,2.8430172 L7.76344287,5.52688575 C6.79783691,6.0106298 6.0106298,6.79783691 5.52688575,7.76344287 L2.8430172,6.4215086 Z M13.5784914,17.1569828 C15.1234609,16.3829923 16.3829923,15.1234609 17.1569828,13.5784914 L14.4731143,12.2365571 C13.9893702,13.2021631 13.2021631,13.9893702 12.2365571,14.4731143 L13.5784914,17.1569828 Z M17.1569828,6.4215086 C16.3829923,4.87653905 15.1234609,3.61700769 13.5784914,2.8430172 L12.2365571,5.52688575 C13.2021631,6.0106298 13.9893702,6.79783691 14.4731143,7.76344287 L17.1569828,6.4215086 Z M11.1673928,5.13701373 C10.7928692,5.04743534 10.4019741,5 10,5 C9.59802585,5 9.20713083,5.04743534 8.83260721,5.13701373 C9.20713083,5.04743534 9.59802585,5 10,5 C10.4019741,5 10.7928692,5.04743534 11.1673928,5.13701373 Z M10,20 C15.5228475,20 20,15.5228475 20,10 C20,4.4771525 15.5228475,0 10,0 C4.4771525,0 0,4.4771525 0,10 C0,15.5228475 4.4771525,20 10,20 Z M10,13 C11.6568542,13 13,11.6568542 13,10 C13,8.34314575 11.6568542,7 10,7 C8.34314575,7 7,8.34314575 7,10 C7,11.6568542 8.34314575,13 10,13 Z" id="Combined-Shape"></path>
        </g>
    </g>
</svg>

<svg width="20" height="20" viewBox="0 0 20 20" xmlns="http://www.w3.org/2000/svg"><path d="M2.843 13.578a8.034 8.034 0 0 0 3.579 3.579l1.341-2.684a5.021 5.021 0 0 1-2.236-2.236l-2.684 1.341zm0-7.156a8.034 8.034 0 0 1 3.579-3.579l1.341 2.684a5.021 5.021 0 0 0-2.236 2.236L2.843 6.422zm10.735 10.735a8.034 8.034 0 0 0 3.579-3.579l-2.684-1.341a5.021 5.021 0 0 1-2.236 2.236l1.341 2.684zm3.579-10.735a8.034 8.034 0 0 0-3.579-3.579l-1.341 2.684a5.021 5.021 0 0 1 2.236 2.236l2.684-1.341zm-5.99-1.285zM10 20c5.523 0 10-4.477 10-10S15.523 0 10 0 0 4.477 0 10s4.477 10 10 10zm0-7a3 3 0 1 0 0-6 3 3 0 0 0 0 6z" fill="#000" fill-rule="evenodd"/></svg>
